projects/oblique/icons/Bug.svg

<?xml version="1.0" encoding="UTF-8"?><svg id="a" xmlns="http://www.w3.org/2000/svg" viewBox="0 0 24 24"><path d="M7.84094,4.03028c-.23456.26709-.45587.55029-.64612.86475-.44824.74268-.73438,1.56152-.85059,2.43457l-.1123.84814,11.53613.00244-.1123-.84863c-.17023-1.28369-.73303-2.41553-1.5271-3.30664.18085-.73486.84711-1.2749,1.61694-1.2749v-1.5c-1.20428,0-2.27722.69775-2.81122,1.72363-.86407-.55518-1.87103-.87402-2.93439-.87402-1.06451,0-2.07764.32031-2.95514.88721-.52533-1.04248-1.591-1.73682-2.8222-1.73682v1.5c.77039,0,1.43933.54297,1.61829,1.28027ZM8.479,5.67041c.78369-1.29688,2.1001-2.0708,3.521-2.0708,1.80713,0,3.39746,1.27588,3.97803,3.08057l-7.95703-.00195c.11279-.35254.26611-.68994.45801-1.00781ZM18.58545,14.85791v-4.52881l1.30762-1.30762-1.06055-1.06055-1.30762,1.30762H6.47516l-1.30719-1.30762-1.06055,1.06055,1.30713,1.30762v4.52881h-1.41553v1.5h1.44275c.10059,1.30762.54468,2.51074,1.23627,3.51514l-1.07062,1.0708,1.06055,1.06055.99225-.99219c1.16028,1.07861,2.67676,1.73828,4.33978,1.73828,1.69031,0,3.22882-.68213,4.396-1.79248l.98682.98633,1.06055-1.06055-1.07574-1.0752c.66614-.99121,1.09222-2.17139,1.19061-3.45068h1.44177v-1.5h-1.41455ZM17.08545,15.79004c0,2.73682-1.88647,5.00293-4.33545,5.39453v-9.18457h-1.5v9.18457c-2.44897-.3916-4.33545-2.65771-4.33545-5.39453v-5.02148h10.1709v5.02148Z"/></svg>

<svg xmlns="http://www.w3.org/2000/svg" viewBox="0 0 24 24"><title>Bug</title><path d="M7.84094,4.03028a6.09546,6.09546,0,0,0-.64612.86474,6.28606,6.28606,0,0,0-.85058,2.43457l-.11231.84815,11.53614.00244-.11231-.84864a6.18443,6.18443,0,0,0-1.5271-3.30664A1.6773,1.6773,0,0,1,17.74561,2.75V1.25a3.18854,3.18854,0,0,0-2.81122,1.72363,5.364,5.364,0,0,0-5.88953.01319A3.1457,3.1457,0,0,0,6.22266,1.25v1.5A1.67884,1.67884,0,0,1,7.84094,4.03028ZM8.479,5.67041A4.12886,4.12886,0,0,1,12,3.59961a4.28162,4.28162,0,0,1,3.978,3.08057l-7.957-.002A4.74659,4.74659,0,0,1,8.479,5.67041Z" fill="#171717"/><path d="M18.58545,14.85791V10.3291l1.30762-1.30761L18.83252,7.96094,17.5249,9.26856H6.47516L5.168,7.96094,4.10742,9.02149,5.41455,10.3291v4.52881H3.999v1.5H5.44177A7.15355,7.15355,0,0,0,6.678,19.87305l-1.07062,1.0708L6.668,22.0044l.99225-.99219A6.28662,6.28662,0,0,0,16.396,20.958l.98681.98633,1.06055-1.06055L17.36761,19.8086a7.15883,7.15883,0,0,0,1.19062-3.45069H20v-1.5Zm-1.5.93213A5.356,5.356,0,0,1,12.75,21.18457V12h-1.5v9.18457A5.356,5.356,0,0,1,6.91455,15.79V10.76856h10.1709Z" fill="#171717"/></svg>
